advanced/wallets/react-wallet-v2/public/icons/pairings-icon.svg

<svg fill="none" height="512" viewBox="0 0 512 512" width="512" xmlns="http://www.w3.org/2000/svg" xmlns:xlink="http://www.w3.org/1999/xlink"><linearGradient id="a" gradientUnits="userSpaceOnUse" x1="48.0001" x2="197.341" y1="160.015" y2="477.442"><stop offset="0" stop-color="#a562d5"/><stop offset="1" stop-color="#306feb"/></linearGradient><path d="m208 352h-64c-25.461 0-49.8788-10.114-67.8822-28.118-18.0035-18.003-28.1178-42.421-28.1178-67.882s10.1143-49.879 28.1178-67.882c18.0034-18.004 42.4212-28.118 67.8822-28.118h64m96 0h64c25.461 0 49.879 10.114 67.882 28.118 18.004 18.003 28.118 42.421 28.118 67.882s-10.114 49.879-28.118 67.882c-18.003 18.004-42.421 28.118-67.882 28.118h-64m-140.71-96h187.42" stroke="url(#a)" stroke-linecap="round" stroke-linejoin="round" stroke-width="36"/></svg>

<svg width="512" height="512" viewBox="0 0 512 512" fill="none" xmlns="http://www.w3.org/2000/svg">
<path d="M208 352H144C118.539 352 94.1212 341.886 76.1178 323.882C58.1143 305.879 48 281.461 48 256C48 230.539 58.1143 206.121 76.1178 188.118C94.1212 170.114 118.539 160 144 160H208M304 160H368C393.461 160 417.879 170.114 435.882 188.118C453.886 206.121 464 230.539 464 256C464 281.461 453.886 305.879 435.882 323.882C417.879 341.886 393.461 352 368 352H304M163.29 256H350.71" stroke="url(#paint0_linear_112_7)" stroke-width="36" stroke-linecap="round" stroke-linejoin="round"/>
<defs>
<linearGradient id="paint0_linear_112_7" x1="48.0001" y1="160.015" x2="197.341" y2="477.442" gradientUnits="userSpaceOnUse">
<stop stop-color="#A562D5"/>
<stop offset="1" stop-color="#306FEB"/>
</linearGradient>
</defs>
</svg>
